X:1
T:Title
%%score { ( 1 4 ) | ( 2 3 ) }
L:1/8
M:4/4
K:F
V:1 treble nm="Grand Piano"
V:4 treble 
V:2 bass 
V:3 bass 
V:1
 z4 z2[Q:1/4=100] C2 | F2 A>G F2 A2 | c2 d2 c2 C2 | %3
 [F,CD]2 [G,CE]>[K:treble][F,CF] [B,DG]2 [CEA]2 |[M:3/4] F6 |[M:1/4] C2 |[M:4/4] F2 A>G F2 A2 | %7
 [CAc]2 [_Ad]2 [C=Ac]2 [Ad]2 | [Ae]2 [CEA]>[DE=B] [EAc]2 [D_AB]2 |[M:3/4] [CEA]6 |[M:1/4] [A,CA]2 | %11
[M:4/4] [EB]2 [EG]>[EA] [EB]2 [Ed]2 | c4 A2 c2 | c2 G2 .[=B,FA]2 .[G,DF]2 |[M:3/4] [B,G]6 | %15
[M:1/4] C2 |[M:4/4] F2 A>G F2 A2 | c2 f2 fd .[B,DB]2 | [A,CF]2 [CFA]>[Fd] [Fc]2 E2 |[M:3/4] F6 |] %20
V:2
 z4 z2 [F,A,]2 | [F,A,C]2 [F,CF]>[F,B,F] [F,A,C]2 [F,C]2 | [A,C]2 [_A,=B,]2 [F,=A,C]2 [A,,F,]2 | %3
 B,,2 B,,>A,, G,,2 C,2 |[M:3/4] [F,A,]6 |[M:1/4] [F,A,]2 | %6
[M:4/4] [F,A,C]2 [F,CF]>[F,B,F] [F,A,C]2 [F,CF]2 | z2 =B,2 F,2 [F,C]2 | [E,C]2 E,>E, E,2 E,2 | %9
[M:3/4] A,,6 |[M:1/4] A,,2 |[M:4/4] [C,G,]2 [C,B,]>[C,A,] [C,G,]2 [C,B,]2 | %12
 [F,A,F]4 [F,CF]2 [^F,A,D]2 | [G,E]2 [G,CE]2 z G z D |[M:3/4] z2 E2 F,2 |[M:1/4] [E,B,]2 | %16
[M:4/4] [F,A,C]2 [F,CF]>[F,B,F] [F,A,C]2[K:treble] [F,CF]2 | [A,F]2- [A,_EF]2 F-[B,F][K:bass] z G | %18
 C,2 C,>[C,A,] [C,G,]2 [C,B,C]2 |[M:3/4] [F,A,C]6 |] %20
V:3
 x8 | x8 | F,4 z4 | x8 |[M:3/4] x6 |[M:1/4] x2 |[M:4/4] x8 | F,4 z4 | x8 |[M:3/4] x6 |[M:1/4] x2 | %11
[M:4/4] x8 | x8 | z4 G,,2 =B,,2 |[M:3/4] C,4 z2 |[M:1/4] x2 |[M:4/4] x6[K:treble] x2 | %17
 C2 z2 .[B,D]2[K:bass] B,,2 | x8 |[M:3/4] x6 |] %20
V:4
 x8 | x8 | x8 | x7/2[K:treble] x9/2 |[M:3/4] x6 |[M:1/4] x2 |[M:4/4] x8 | x8 | x8 |[M:3/4] x6 | %10
[M:1/4] x2 |[M:4/4] x8 | x8 | x8 |[M:3/4] D2 z2 D2 |[M:1/4] x2 |[M:4/4] x8 | x8 | x8 |[M:3/4] x6 |] %20

